logos/nomad.svg

<?xml version="1.0" encoding="UTF-8"?>
<svg width="512px" height="136px" viewBox="0 0 512 136" version="1.1" xmlns="http://www.w3.org/2000/svg" preserveAspectRatio="xMidYMid">
    <title>Nomad</title>
    <g>
        <path d="M187.424325,46.8147682 L187.424325,108.441785 L172.430701,108.441785 L172.430701,27.1860191 L192.905865,27.1860191 L223.701236,88.8734945 L223.701236,27.1860191 L238.694859,27.1860191 L238.694859,108.441785 L218.219696,108.441785 L187.42634,46.8147682 L187.424325,46.8147682 Z M275.241817,109.610643 C254.88757,109.610643 249.40603,98.3855782 249.40603,86.1931827 L249.40603,71.1995592 C249.40603,59.1079273 254.88757,47.8022514 275.241817,47.8022514 C295.596064,47.8022514 301.097756,59.0071637 301.097756,71.1995592 L301.097756,86.2737936 C301.097756,98.3654255 295.616217,109.610643 275.241817,109.610643 Z M275.241817,60.4783122 C267.321798,60.4783122 264.278737,64.0050382 264.278737,70.7158939 L264.278737,86.676848 C264.278737,93.3877037 267.321798,96.9345824 275.241817,96.9345824 C283.161836,96.9345824 286.164591,93.3877037 286.164591,86.676848 L286.164591,70.7158939 C286.164591,64.1058018 283.181989,60.4783122 275.241817,60.4783122 Z M346.32449,108.441785 L346.32449,66.9271826 C346.32449,63.7632055 344.974258,62.1711407 341.568448,62.1711407 C338.162639,62.1711407 331.492088,64.3677871 326.09116,67.1690152 L326.09116,108.441785 L311.218452,108.441785 L311.218452,49.0114146 L322.544281,49.0114146 L324.015429,54.0092891 C331.42504,50.3111341 339.523838,48.1972105 347.795639,47.8022514 C353.519011,47.8022514 357.045737,50.1198142 359.000551,54.1302055 C366.425092,50.3403706 374.574501,48.1827697 382.901677,47.8022514 C392.776509,47.8022514 396.303235,54.7347871 396.303235,65.3552704 L396.303235,108.441785 L381.430528,108.441785 L381.430528,66.9271826 C381.430528,63.7632055 380.100449,62.1711407 376.674486,62.1711407 C371.223849,62.7420988 365.952367,64.4443481 361.197198,67.1690152 L361.197198,108.441785 L346.32449,108.441785 L346.32449,108.441785 Z M452.513202,108.441785 L440.320806,108.441785 L439.212407,104.411241 C433.949263,107.824794 427.811666,109.644378 421.538471,109.650949 C410.696308,109.650949 406.061182,102.214595 406.061182,91.9770133 C406.061182,79.8853814 411.30089,75.2704086 423.372369,75.2704086 L437.640494,75.2704086 L437.640494,69.0029127 C437.640494,62.433126 435.806597,60.1155633 426.294513,60.1155633 C420.759799,60.1744811 415.244563,60.7820346 409.829741,61.929308 L408.015996,50.6034795 C414.6454,48.765899 421.49091,47.8237941 428.370243,47.8022514 C447.011509,47.8022514 452.553507,54.3720381 452.553507,69.2447453 L452.513202,108.441785 L452.513202,108.441785 Z M437.640494,86.0118082 L426.657262,86.0118082 C421.780304,86.0118082 420.450224,87.3620405 420.450224,91.8762497 C420.450224,95.9067937 421.780304,97.9220657 426.49604,97.9220657 C430.433244,97.8617531 434.292531,96.8155192 437.721105,94.879005 L437.640494,86.0118082 Z M461.638353,68.7610801 C461.638353,55.601354 467.482642,47.8022514 481.267102,47.8022514 C486.595995,47.8547399 491.90737,48.4216465 497.127293,49.4950799 L497.127293,24.74754 L512,22.732268 L512,108.441785 L500.170353,108.441785 L498.699205,103.443911 C493.287158,107.501712 486.701321,109.687558 479.937023,109.671194 C467.98646,109.671194 461.638353,102.597497 461.638353,89.0548689 L461.638353,68.7610801 L461.638353,68.7610801 Z M497.127293,62.0905298 C492.797283,61.1291096 488.382081,60.6025259 483.947414,60.5186176 C478.586791,60.5186176 476.51106,63.0780131 476.51106,68.4386365 L476.51106,89.3773124 C476.51106,94.2542706 478.344958,96.9345824 483.826498,96.9345824 C488.754045,96.756894 493.462222,94.8522227 497.127293,91.5538062 L497.127293,62.0905298 Z" fill="#000000"></path>
        <path d="M58.7250256,0 L0,33.876722 L0,101.650319 L58.6847201,135.527041 L117.409746,101.650319 L117.409746,33.876722 L58.7250256,0 Z M84.9235614,74.5650634 L69.2850508,83.5934819 L50.3817996,73.2551366 L50.3817996,94.8588522 L32.6272534,106.124223 L32.6272534,60.9821302 L46.7341573,52.3567661 L66.2822955,62.654806 L66.2822955,40.6077305 L84.9235614,29.4028182 L84.9235614,74.5650634 Z" fill="#00CA8E"></path>
    </g>
</svg>

<svg preserveAspectRatio="xMidYMid" viewBox="0 0 512 136" xmlns="http://www.w3.org/2000/svg">
  <path d="M187.424 46.815v61.627h-14.993V27.186h20.475L223.7 88.873V27.186h14.994v81.256H218.22l-30.794-61.627h-.002Zm87.818 62.796c-20.354 0-25.836-11.225-25.836-23.418V71.2c0-12.092 5.482-23.398 25.836-23.398s25.856 11.205 25.856 23.398v15.074c0 12.091-5.482 23.337-25.856 23.337Zm0-49.133c-7.92 0-10.963 3.527-10.963 10.238v15.96c0 6.712 3.043 10.259 10.963 10.259 7.92 0 10.923-3.547 10.923-10.258V70.716c0-6.61-2.983-10.238-10.923-10.238Zm71.082 47.964V66.927c0-3.164-1.35-4.756-4.756-4.756-3.405 0-10.076 2.197-15.477 4.998v41.273h-14.873v-59.43h11.326l1.471 4.997a59.618 59.618 0 0 1 23.78-6.207c5.724 0 9.25 2.318 11.206 6.328a58.439 58.439 0 0 1 23.9-6.328c9.876 0 13.402 6.933 13.402 17.553v43.087h-14.872V66.927c0-3.164-1.33-4.756-4.757-4.756a39.384 39.384 0 0 0-15.477 4.998v41.273h-14.873Zm106.19 0H440.32l-1.109-4.03a32.543 32.543 0 0 1-17.674 5.239c-10.842 0-15.477-7.436-15.477-17.674 0-12.092 5.24-16.707 17.311-16.707h14.268v-6.267c0-6.57-1.833-8.887-11.345-8.887a83.735 83.735 0 0 0-16.465 1.813l-1.814-11.326a77.104 77.104 0 0 1 20.354-2.8c18.642 0 24.184 6.569 24.184 21.442l-.04 39.197Zm-14.874-22.43h-10.983c-4.877 0-6.207 1.35-6.207 5.864 0 4.03 1.33 6.046 6.046 6.046a23.559 23.559 0 0 0 11.225-3.043l-.08-8.867Zm23.998-17.25c0-13.16 5.845-20.96 19.63-20.96a82.87 82.87 0 0 1 15.86 1.693V24.748L512 22.732v85.71h-11.83l-1.47-4.998a31.15 31.15 0 0 1-18.763 6.227c-11.95 0-18.299-7.074-18.299-20.616V68.76Zm35.49-6.671a66.619 66.619 0 0 0-13.18-1.572c-5.361 0-7.437 2.559-7.437 7.92v20.938c0 4.877 1.834 7.558 7.315 7.558a21.015 21.015 0 0 0 13.301-5.381V62.09Z"/>
  <path fill="#00CA8E" d="M58.725 0 0 33.877v67.773l58.685 33.877 58.725-33.877V33.877L58.725 0Zm26.199 74.565-15.639 9.028-18.903-10.338V94.86l-17.755 11.265V60.982l14.107-8.625 19.548 10.298V40.608l18.642-11.205v45.162Z"/>
</svg>
